X:2525
T:Cantar de Navidá (CT 157)
R:Navidá
C:Tradicional
S:Música Tradicional Asturiana, (C) Tello & Tito. Asturies, 2001.
S:http://pagina.de/MusTradAst <telloytito@asturies.org>
N:Canción de Navidad, transcrita en Luiña, ayuntamiento de Ibias.
O:Luiña (Ibias)
A:Asturies
Z:Cancioneru de Torner 157
M:2/4
L:1/8
Q:1/4=84
W:Señora María,
W:como ama de casa,
W:suba al sou foumeiru
W:y baxe ensin tasa.
K:G
F/
|G2 B(c/A/)|(B/c/B/A/) G>F|G2 A>B|(3B/c/B/ A-Az/G/|
B2-Bc/A/|(B/c/B/A/) G>F|G2 A>F|GG-Gz||


